!!!COM: Bach, Johann Sebastian
!!!CDT: 1685/02/21/-1750/07/28/
!!!OTL@@DE:	Nun bitten wir den heiligen Geist
!!!SCT: BWV 385
!!!PC#:	36
!!!AGN: chorale
**harm	**kern	**kern	**kern	**kern
*	*ICvox	*ICvox	*ICvox	*ICvox
*	*Ibass	*Itenor	*Ialto	*Isoprn
*	*I"Bass	*I"Tenor	*I"Alto	*I"Soprano
*	*	*oclefC4	*oclefC3	*oclefC1
*	*clefF4	*clefGv2	*clefG2	*clefG2
*k[f#c#g#]	*k[f#c#g#]	*k[f#c#g#]	*k[f#c#g#]	*k[f#c#g#]
*A:	*A:	*A:	*A:	*A:
*M4/4	*M4/4	*M4/4	*M4/4	*M4/4
*met(c)	*met(c)	*met(c)	*met(c)	*met(c)
*MM100	*MM100	*MM100	*MM100	*MM100
I	4A	4c#	4e	4a
=1	=1	=1	=1	=1
V6	4G#	4B	4e	4b
V	8EL	8G#L	8eL	8bL
V2	8DJ	8G#J	8eJ	8bJ
I6	4C#	4A	4e	4a
IV	4D	4A	4d	4f#
=2	=2	=2	=2	=2
V2	4D	4G#	4B	4e
vi64	8C#L	8AL	8c#L	8f#L
viio6	8BBJ	8BJ	8dJ	8g#J
I6	8C#L	8EL	8eL	8aL
I	8AAJ	8AJ	8eJ	8aJ
V	4E	4G#	4e	4b
=3	=3	=3	=3	=3
I;	2.AA;	2.c#;	2.e;	2.a;
I	4A	4e	4a	4cc#
=4	=4	=4	=4	=4
V6	4G#	4e	4b	4ee
IV6	4F#	4A	4dd	4ff#
V6	4G#	4B	4b	4ee
I	4A	4c#	4a	4cc#
=5	=5	=5	=5	=5
I6	4C#	4e	4a	4a
IV	4D	4A	4d	4f#
vi	4F#	4A	4c#	4a
ii65	8DL	8AL	8f#L	8bL
V	8EJ	8G#J	8eJ	8bJ
=6	=6	=6	=6	=6
I;	2AA;	2E;	2c#;	2a;
I	4A	4e	4a	4cc#
f#:V65	4E#	4g#	4b	4cc#
=7	=7	=7	=7	=7
i	4F#	4f#	4a	4cc#
iv6	8DL	8F#L	8f#L	8bL
ii%43	8DJ	8G#J	8f#J	8bJ
V(64)	4C#	4A	4f#	4cc#
V	4C#	4G#	4e#	4cc#
=8	=8	=8	=8	=8
i;	2F#;	2F#;	2c#;	2a;
.	4r	4ry	4ry	4r
i	4F#	4c#	4f#	4a
=9	=9	=9	=9	=9
A:V	4E	4e	4g#	4b
V64	4BB	4e	4g#	4b
I	4AA	4e	4a	4cc#
V7/IV	4AA	4e	4g	4cc#
=10	=10	=10	=10	=10
IV;	2D;	2d;	2f#;	2a;
ii	4BB	4d	4f#	4b
V	4E	4B	4g#X	4b
=11	=11	=11	=11	=11
I	4AA	4A	4a	4cc#
I6	4C#	4e	4e	4a
IV	4D	4A	4d	4f#
viio6	4BB	4G#	4d	4b
=12	=12	=12	=12	=12
iii7	4C#	4E	4c#	4b
E:vi6	4E	4G#	4e	4g#
ii65	4AA	4c#	4e	4f#
V7	4BB	4A	4d#	4f#
=13	=13	=13	=13	=13
I;	2E;	2G#;	2B;	2e;
A:IV	4DnX	4A	4dnX	4f#
viio6	4BB	4B	4d	4g#
=14	=14	=14	=14	=14
I6	8C#L	8EL	8eL	8aL
I	8AAJ	8AJ	8eJ	8aJ
V7	4EE	4G#	4d	4b
I;	4AA;	4E;	4c#;	4a;
==	==	==	==	==
*-	*-	*-	*-	*-
!!!YOR1: 371 vierstimmige Choralges&auml;nge von Johann Sebastian Bach, 
!!!YOR2: 4th ed. by Alfred D&ouml;rffel (Leipzig: Breitkopf und H&auml;rtel, 
!!!YOR2: c.1875). 178 pp. Plate "V.A.10".  reprint: J.S. Bach, 371 Four-Part 
!!!YOR4: Chorales (New York: Associated Music Publishers, Inc., c.1940).
!!!SMS: B&H, 4th ed, Alfred D&ouml;rffel, c.1875, plate V.A.10
!!!EED:  Craig Stuart Sapp
!!!EEV:  2009/05/22
